X:143
T:Sir John Fenwick
M:3/4
L:1/8
Q:1/8=150
K:G
G3 ABc|d2 e2 g2|d2 e2 g2|edcBAG|
A3 Bcd|e2 e2 g2|e2 e2 g2|e4 d2|G3 ABc|
d2 e2 g2|d2 e2 g2|edcBAG|c2 dcBA|
B2 cBAG|A2 B2 d2|e4 d2 ::
g2 G2 B2|g2 G2 B2|g2 G2 g2|
edcBAG|a2 A2 c2|a2 A2 c2|a2 A2 a2|
e4 d2|g2 G2 B2|g2 G2 B2|g2 G2 g2|
edcBAG|c2 dcBA|B2 cBAG|A2 B2 d2|e4 d2:|
